X:11979
T:no name
R:reel
H:Related to "Jenny's Chickens", #75
H:and to "Sleepy Maggie", #650
D:De Danann: Hibernian Rhapsody
Z:id:hn-reel-691
M:C|
K:Bdor
fB~B2 fBce|fB~B2 eAce|fB~B2 fBcB|A2af eAce:|
|:f2bB fBce|f2bB eAce|f2bB fBce|1 f2af eAce:|2 f2af e2de||
|:f2fe fdde|fdaf e2de|f2fe fdde|1 f2af e2de:|2 feaf e2de||
